core/assets/icons/character.bee.filled.svg

<svg width="25" height="24" viewBox="0 0 25 24" xmlns="http://www.w3.org/2000/svg"><g id="character=bee, state=filled"><g id="Layer"><g id="Group"><path id="Vector" d="M12.0005 21.6058C14.0022 21.6058 15.7333 20.4623 16.5867 18.7949H7.41431C8.2677 20.4623 9.99876 21.6058 12.0005 21.6058Z"/><path id="Vector_2" d="M7.78418 7.08327C7.78418 8.37707 8.83276 9.42566 10.1266 9.42566H13.8744C15.1682 9.42566 16.2168 8.37707 16.2168 7.08327C16.2168 5.78947 15.1682 4.74088 13.8744 4.74088C13.8758 3.96496 14.5039 3.33682 15.2798 3.33545H15.7483V2.3985H15.2798C13.986 2.39885 12.9378 3.44708 12.9374 4.74088H11.0635C11.0632 3.44708 10.0149 2.39885 8.72113 2.3985H8.25266V3.33545H8.72113C9.49705 3.33682 10.1251 3.96497 10.1266 4.74088C8.83276 4.74088 7.78418 5.78947 7.78418 7.08327Z"/><path id="Vector_3" d="M19.0277 10.3634H18.0908H17.1538H12.469L14.1262 13.1743H9.87491L11.5321 10.3634H6.84731H5.91036H4.9734C2.90369 10.3634 1.22559 12.0415 1.22559 14.1112C1.22559 16.1809 2.90369 17.859 4.9734 17.859C5.29794 17.859 5.61063 17.8137 5.91036 17.7371C6.8957 17.4853 7.71924 16.8472 8.2146 15.9851H15.7865C16.2819 16.8472 17.1054 17.4853 18.0908 17.7371C18.3905 17.8137 18.7032 17.859 19.0277 17.859C21.0974 17.859 22.7755 16.1809 22.7755 14.1112C22.7755 12.0415 21.0974 10.3634 19.0277 10.3634Z"/></g></g></g></svg>

<svg xmlns="http://www.w3.org/2000/svg" width="25" height="24" fill="none"><g fill="#191C22"><path d="M12 21.606a5.149 5.149 0 0 0 4.587-2.811H7.414a5.149 5.149 0 0 0 4.587 2.81ZM7.784 7.083a2.342 2.342 0 0 0 2.343 2.343h3.747a2.342 2.342 0 1 0 0-4.685 1.408 1.408 0 0 1 1.406-1.406h.468v-.937h-.468a2.343 2.343 0 0 0-2.343 2.343h-1.873A2.343 2.343 0 0 0 8.72 2.399h-.468v.936h.468c.776.002 1.404.63 1.406 1.406a2.342 2.342 0 0 0-2.343 2.342ZM19.028 10.363H12.469l1.657 2.811H9.875l1.657-2.81H4.973a3.748 3.748 0 0 0 0 7.495c.325 0 .638-.045.937-.122a3.716 3.716 0 0 0 2.305-1.752h7.572a3.717 3.717 0 0 0 2.304 1.752c.3.077.612.122.937.122a3.748 3.748 0 0 0 0-7.496Z"/></g></svg>
